resources/haticons/SVG/sentiment_neutral.svg

<!-- Generated by IcoMoon.io -->
<svg version="1.1" xmlns="http://www.w3.org/2000/svg" width="24" height="24" viewBox="0 0 24 24">
<title>sentiment_neutral</title>
<path d="M12 20.016q3.281 0 5.648-2.367t2.367-5.648-2.367-5.648-5.648-2.367-5.648 2.367-2.367 5.648 2.367 5.648 5.648 2.367zM12 2.016q4.125 0 7.055 2.93t2.93 7.055-2.93 7.055-7.055 2.93-7.055-2.93-2.93-7.055 2.93-7.055 7.055-2.93zM6.984 9.516q0-0.609 0.445-1.055t1.055-0.445 1.055 0.445 0.445 1.055-0.445 1.055-1.055 0.445-1.055-0.445-0.445-1.055zM14.016 9.516q0-0.609 0.445-1.055t1.055-0.445 1.055 0.445 0.445 1.055-0.445 1.055-1.055 0.445-1.055-0.445-0.445-1.055zM9 15.516h6v0.984h-6v-0.984z"></path>
</svg>

<svg xmlns="http://www.w3.org/2000/svg" width="24" height="24"><path d="M12 20.016q3.281 0 5.648-2.367t2.367-5.648-2.367-5.648T12 3.986 6.352 6.353t-2.367 5.648 2.367 5.648T12 20.016zm0-18q4.125 0 7.055 2.93t2.93 7.055-2.93 7.055T12 21.986t-7.055-2.93-2.93-7.055 2.93-7.055T12 2.016zm-5.016 7.5q0-.609.445-1.055t1.055-.445 1.055.445.445 1.055-.445 1.055-1.055.445-1.055-.445-.445-1.055zm7.032 0q0-.609.445-1.055t1.055-.445 1.055.445.445 1.055-.445 1.055-1.055.445-1.055-.445-.445-1.055zm-5.016 6h6v.984H9v-.984z"/></svg>
